apps/48/internet-web-browser.svg

<?xml version="1.0" encoding="UTF-8" standalone="no"?>
<svg
   xmlns:dc="http://purl.org/dc/elements/1.1/"
   xmlns:cc="http://creativecommons.org/ns#"
   xmlns:rdf="http://www.w3.org/1999/02/22-rdf-syntax-ns#"
   xmlns:svg="http://www.w3.org/2000/svg"
   xmlns="http://www.w3.org/2000/svg"
   xmlns:xlink="http://www.w3.org/1999/xlink"
   version="1.1"
   width="48"
   height="48"
   id="svg4031">
  <defs
     id="defs4033">
    <linearGradient
       id="linearGradient4168">
      <stop
         id="stop4170"
         style="stop-color:#f8b17e;stop-opacity:1"
         offset="0" />
      <stop
         id="stop4172"
         style="stop-color:#e35d4f;stop-opacity:1"
         offset="0.23208089" />
      <stop
         id="stop4174"
         style="stop-color:#c6262e;stop-opacity:1"
         offset="0.5908742" />
      <stop
         id="stop4176"
         style="stop-color:#690b54;stop-opacity:1"
         offset="1" />
    </linearGradient>
    <linearGradient
       id="linearGradient3957">
      <stop
         id="stop3959"
         style="stop-color:#ffffff;stop-opacity:1"
         offset="0" />
      <stop
         id="stop3961"
         style="stop-color:#c1c1c1;stop-opacity:1"
         offset="1" />
    </linearGradient>
    <linearGradient
       id="linearGradient4011">
      <stop
         id="stop4013"
         style="stop-color:#ffffff;stop-opacity:1"
         offset="0" />
      <stop
         id="stop4015"
         style="stop-color:#ffffff;stop-opacity:0.23529412"
         offset="0.507761" />
      <stop
         id="stop4017"
         style="stop-color:#ffffff;stop-opacity:0.15686275"
         offset="0.83456558" />
      <stop
         id="stop4019"
         style="stop-color:#ffffff;stop-opacity:0.39215687"
         offset="1" />
    </linearGradient>
    <linearGradient
       id="linearGradient2867-449-88-871-390-598-476-591-434-148-57-177-3-8">
      <stop
         id="stop3750-8-9"
         style="stop-color:#90dbec;stop-opacity:1"
         offset="0" />
      <stop
         id="stop3752-3-2"
         style="stop-color:#42baea;stop-opacity:1"
         offset="0.26238" />
      <stop
         id="stop3754-7-2"
         style="stop-color:#3689e6;stop-opacity:1"
         offset="0.704952" />
      <stop
         id="stop3756-9-3"
         style="stop-color:#2b63a0;stop-opacity:1"
         offset="1" />
    </linearGradient>
    <linearGradient
       id="linearGradient3820-7-2-1">
      <stop
         id="stop3822-2-6-3"
         style="stop-color:#3d3d3d;stop-opacity:1"
         offset="0" />
      <stop
         id="stop3864-8-7-7"
         style="stop-color:#686868;stop-opacity:0.49803922"
         offset="0.5" />
      <stop
         id="stop3824-1-2-5"
         style="stop-color:#686868;stop-opacity:0"
         offset="1" />
    </linearGradient>
    <linearGradient
       x1="71.204407"
       y1="6.2375584"
       x2="71.204407"
       y2="44.340794"
       id="linearGradient3012"
       xlink:href="#linearGradient4011"
       gradientUnits="userSpaceOnUse"
       gradientTransform="matrix(1.054054,0,0,1.054054,-51.611001,-2.7279009)" />
    <radialGradient
       cx="3.9722471"
       cy="8.4497671"
       r="19.99999"
       fx="3.9722471"
       fy="8.4497671"
       id="radialGradient3015"
       xlink:href="#linearGradient2867-449-88-871-390-598-476-591-434-148-57-177-3-8"
       gradientUnits="userSpaceOnUse"
       gradientTransform="matrix(0,2.4988347,-2.6434689,-6.8014435e-8,46.336814,-12.180468)" />
    <radialGradient
       cx="99.157013"
       cy="186.17059"
       r="62.769119"
       fx="99.157013"
       fy="186.17059"
       id="radialGradient3018"
       xlink:href="#linearGradient3820-7-2-1"
       gradientUnits="userSpaceOnUse"
       gradientTransform="matrix(0.27083381,0,0,0.08762273,-2.855072,25.187228)" />
    <linearGradient
       x1="27.92535"
       y1="15.149301"
       x2="33.447899"
       y2="22.986004"
       id="linearGradient3951"
       xlink:href="#linearGradient4168"
       gradientUnits="userSpaceOnUse" />
    <linearGradient
       x1="24"
       y1="22"
       x2="24"
       y2="26"
       id="linearGradient3963"
       xlink:href="#linearGradient3957"
       gradientUnits="userSpaceOnUse" />
    <linearGradient
       x1="21.013996"
       y1="25.433903"
       x2="22.805599"
       y2="27.343702"
       id="linearGradient3963-7"
       xlink:href="#linearGradient3957-2"
       gradientUnits="userSpaceOnUse" />
    <linearGradient
       id="linearGradient3957-2">
      <stop
         id="stop3959-62"
         style="stop-color:#ffffff;stop-opacity:1"
         offset="0" />
      <stop
         id="stop3961-5"
         style="stop-color:#c1c1c1;stop-opacity:1"
         offset="1" />
    </linearGradient>
  </defs>
  <metadata
     id="metadata4036">
    <rdf:RDF>
      <cc:Work
         rdf:about="">
        <dc:format>image/svg+xml</dc:format>
        <dc:type
           rdf:resource="http://purl.org/dc/dcmitype/StillImage" />
        <dc:title />
      </cc:Work>
    </rdf:RDF>
  </metadata>
  <path
     d="m 40.999999,41.499999 a 17,5.4999999 0 1 1 -33.999999,0 17,5.4999999 0 1 1 33.999999,0 z"
     id="path3818-0-5"
     style="fill:url(#radialGradient3018);fill-opacity:1;stroke:none" />
  <path
     d="M 24.000003,3.4999982 C 12.68881,3.4999982 3.4999996,12.688804 3.4999996,23.999998 3.4999996,35.311192 12.68881,44.500003 24.000003,44.5 35.311191,44.5 44.500011,35.311192 44.5,23.999998 44.5,12.688804 35.311191,3.4999982 24.000003,3.4999982 z"
     id="path2555"
     style="color:#000000;fill:url(#radialGradient3015);fill-opacity:1;fill-rule:nonzero;stroke:none;stroke-width:1;marker:none;visibility:visible;display:inline;overflow:visible;enable-background:accumulate" />
  <path
     d="m 43.5,23.999308 c 0,10.7699 -8.73109,19.50069 -19.499753,19.50069 -10.769649,0 -19.5002474,-8.730889 -19.5002474,-19.50069 0,-10.769402 8.7305984,-19.4993078 19.5002474,-19.4993078 C 34.76891,4.5000002 43.5,13.229906 43.5,23.999308 l 0,0 z"
     id="path8655"
     style="opacity:0.5;color:#000000;fill:none;stroke:url(#linearGradient3012);stroke-width:1;stroke-linecap:round;stroke-linejoin:round;stroke-miterlimit:4;stroke-opacity:1;stroke-dasharray:none;stroke-dashoffset:0;marker:none;visibility:visible;display:inline;overflow:visible;enable-background:accumulate" />
  <path
     d="m 24.000003,3.499998 c -11.311193,0 -20.5000034,9.188806 -20.5000034,20.5 0,11.311194 9.1888104,20.500005 20.5000034,20.500002 11.311188,0 20.500008,-9.188808 20.499997,-20.500002 0,-11.311194 -9.188809,-20.5 -20.499997,-20.5 z"
     id="path2555-6"
     style="opacity:0.5;color:#000000;fill:#000000;fill-opacity:0;fill-rule:nonzero;stroke:#00537d;stroke-width:1;stroke-linecap:round;stroke-linejoin:round;stroke-miterlimit:4;stroke-opacity:1;stroke-dasharray:none;stroke-dashoffset:0;marker:none;visibility:visible;display:inline;overflow:visible;enable-background:accumulate" />
  <path
     d="m 36.59375,11.46875 a 0.80849739,0.80849739 0 0 0 -0.375,0.1875 l -14.125,11.3125 a 0.80849739,0.80849739 0 0 0 -0.125,0.125 l -11.3125,14.125 a 0.80849739,0.80849739 0 0 0 1.125,1.125 l 14.125,-11.3125 a 0.80849739,0.80849739 0 0 0 0.125,-0.125 l 11.3125,-14.125 a 0.80849739,0.80849739 0 0 0 -0.75,-1.3125 z"
     id="path4097"
     style="opacity:0.05;color:#000000;fill:#000000;fill-opacity:1;fill-rule:nonzero;stroke:none;stroke-width:1;marker:none;visibility:visible;display:inline;overflow:visible;enable-background:accumulate" />
  <path
     d="m 36.71875,12.2815 -14.125,11.3125 -11.3125,14.125 14.125,-11.3125 11.3125,-14.125 z"
     id="path3022-96"
     style="opacity:0.15;color:#000000;fill:#000000;fill-opacity:1;fill-rule:nonzero;stroke:none;stroke-width:1;marker:none;visibility:visible;display:inline;overflow:visible;enable-background:accumulate" />
  <path
     d="m 22.585786,22.585786 2.828428,2.828428 11.313708,-14.142136 z"
     id="path3022"
     style="fill:url(#linearGradient3951);fill-opacity:1;stroke:none" />
  <path
     d="m 22.585786,22.585786 2.828428,2.828428 -14.142136,11.313708 z"
     id="path3022-9"
     style="color:#000000;fill:url(#linearGradient3963-7);fill-opacity:1;fill-rule:nonzero;stroke:none;stroke-width:0.75;marker:none;visibility:visible;display:inline;overflow:visible;enable-background:accumulate" />
  <path
     d="m 26,24 a 2,2 0 1 1 -4,0 2,2 0 1 1 4,0 z"
     transform="translate(0,0.5)"
     id="path3955-1-5"
     style="opacity:0.2;color:#000000;fill:#000000;fill-opacity:1;fill-rule:nonzero;stroke:none;stroke-width:1.33333337;marker:none;visibility:visible;display:inline;overflow:visible;enable-background:accumulate" />
  <path
     d="m 23.318541,24.731857 a 1,1 0 0 1 0.678908,-1.731854 L 24,24 z"
     id="path3953"
     style="opacity:0.05;color:#000000;fill:#ffffff;fill-opacity:1;fill-rule:nonzero;stroke:none;stroke-width:1;marker:none;visibility:visible;display:inline;overflow:visible;enable-background:accumulate" />
  <path
     d="m 26,24 a 2,2 0 1 1 -4,0 2,2 0 1 1 4,0 z"
     transform="matrix(0.75,0,0,0.75,5.9999998,6.5)"
     id="path3955-1"
     style="opacity:0.2;color:#000000;fill:#000000;fill-opacity:1;fill-rule:nonzero;stroke:none;stroke-width:1.33333337;marker:none;visibility:visible;display:inline;overflow:visible;enable-background:accumulate" />
  <path
     d="m 26,24 a 2,2 0 1 1 -4,0 2,2 0 1 1 4,0 z"
     transform="matrix(0.75,0,0,0.75,5.9999998,5.9999991)"
     id="path3955"
     style="color:#000000;fill:url(#linearGradient3963);fill-opacity:1;fill-rule:nonzero;stroke:none;stroke-width:1;marker:none;visibility:visible;display:inline;overflow:visible;enable-background:accumulate" />
</svg>

<svg xmlns="http://www.w3.org/2000/svg" xmlns:xlink="http://www.w3.org/1999/xlink" viewBox="0 0 48 48"><defs><linearGradient id="d"><stop offset="0" stop-color="#f8b17e"/><stop offset=".232" stop-color="#e35d4f"/><stop offset=".591" stop-color="#c6262e"/><stop offset="1" stop-color="#690b54"/></linearGradient><linearGradient id="e"><stop offset="0" stop-color="#fff"/><stop offset="1" stop-color="#c1c1c1"/></linearGradient><linearGradient id="a"><stop offset="0" stop-color="#fff"/><stop offset=".508" stop-color="#fff" stop-opacity=".235"/><stop offset=".835" stop-color="#fff" stop-opacity=".157"/><stop offset="1" stop-color="#fff" stop-opacity=".392"/></linearGradient><linearGradient id="b"><stop offset="0" stop-color="#90dbec"/><stop offset=".262" stop-color="#42baea"/><stop offset=".705" stop-color="#3689e6"/><stop offset="1" stop-color="#2b63a0"/></linearGradient><linearGradient id="c"><stop offset="0" stop-color="#3d3d3d"/><stop offset=".5" stop-color="#686868" stop-opacity=".498"/><stop offset="1" stop-color="#686868" stop-opacity="0"/></linearGradient><linearGradient x1="71.204" y1="6.238" x2="71.204" y2="44.341" id="i" xlink:href="#a" gradientUnits="userSpaceOnUse" gradientTransform="translate(-51.61 -2.728) scale(1.05405)"/><radialGradient cx="3.972" cy="8.45" r="20" fx="3.972" fy="8.45" id="h" xlink:href="#b" gradientUnits="userSpaceOnUse" gradientTransform="matrix(0 2.49883 -2.64347 0 46.337 -12.18)"/><radialGradient cx="99.157" cy="186.171" r="62.769" fx="99.157" fy="186.171" id="g" xlink:href="#c" gradientUnits="userSpaceOnUse" gradientTransform="matrix(.27083 0 0 .08762 -2.855 25.187)"/><linearGradient x1="27.925" y1="15.149" x2="33.448" y2="22.986" id="j" xlink:href="#d" gradientUnits="userSpaceOnUse"/><linearGradient x1="24" y1="22" x2="24" y2="26" id="l" xlink:href="#e" gradientUnits="userSpaceOnUse"/><linearGradient x1="21.014" y1="25.434" x2="22.806" y2="27.344" id="k" xlink:href="#f" gradientUnits="userSpaceOnUse"/><linearGradient id="f"><stop offset="0" stop-color="#fff"/><stop offset="1" stop-color="#c1c1c1"/></linearGradient></defs><path d="M41 41.5a17 5.5 0 1 1-34 0 17 5.5 0 1 1 34 0z" fill="url(#g)"/><path d="M24 3.5C12.69 3.5 3.5 12.69 3.5 24S12.69 44.5 24 44.5 44.5 35.31 44.5 24 35.31 3.5 24 3.5z" color="#000" fill="url(#h)" overflow="visible"/><path d="M43.5 24c0 10.77-8.73 19.5-19.5 19.5S4.5 34.77 4.5 24 13.23 4.5 24 4.5 43.5 13.23 43.5 24z" opacity=".5" color="#000" fill="none" stroke="url(#i)" stroke-linecap="round" stroke-linejoin="round" overflow="visible"/><path d="M24 3.5C12.69 3.5 3.5 12.69 3.5 24S12.69 44.5 24 44.5 44.5 35.31 44.5 24 35.31 3.5 24 3.5z" opacity=".5" color="#000" stroke="#00537d" stroke-linecap="round" stroke-linejoin="round" overflow="visible" fill="none"/><path d="M36.594 11.47a.808.808 0 0 0-.375.186L22.09 22.97a.808.808 0 0 0-.125.124L10.655 37.22a.808.808 0 0 0 1.125 1.124L25.907 27.03a.808.808 0 0 0 .125-.124L37.345 12.78a.808.808 0 0 0-.75-1.31z" opacity=".05" color="#000" overflow="visible"/><path d="M36.72 12.28L22.593 23.597 11.28 37.72l14.126-11.313L36.72 12.282z" opacity=".15" color="#000" overflow="visible"/><path d="M22.586 22.586l2.828 2.828 11.314-14.142z" fill="url(#j)"/><path d="M22.586 22.586l2.828 2.828-14.142 11.314z" color="#000" fill="url(#k)" overflow="visible"/><path d="M26 24.5a2 2 0 1 1-4 0 2 2 0 1 1 4 0z" opacity=".2" color="#000" overflow="visible"/><path d="M23.32 24.732A1 1 0 0 1 23.996 23L24 24z" opacity=".05" color="#000" fill="#fff" overflow="visible"/><path d="M25.5 24.5a1.5 1.5 0 1 1-3 0 1.5 1.5 0 1 1 3 0z" opacity=".2" color="#000" overflow="visible"/><path d="M26 24a2 2 0 1 1-4 0 2 2 0 1 1 4 0z" transform="matrix(.75 0 0 .75 6 6)" color="#000" fill="url(#l)" overflow="visible"/></svg>
